src/images/icons/back.svg

<svg width="32" height="23" viewBox="0 0 32 23" fill="none" xmlns="http://www.w3.org/2000/svg">
<path d="M12.9545 1.16981C13.3462 1.56148 13.5342 2.03474 13.5185 2.5896C13.5028 3.14446 13.2985 3.61773 12.9055 4.00939L7.37324 9.54168L29.2087 9.54168C29.7635 9.54168 30.2289 9.72968 30.6049 10.1057C30.9809 10.4817 31.1683 10.9465 31.167 11.5C31.167 12.0549 30.979 12.5203 30.603 12.8963C30.227 13.2723 29.7622 13.4597 29.2087 13.4584L7.37324 13.4584L12.9545 19.0396C13.3462 19.4313 13.542 19.8967 13.542 20.4359C13.542 20.9751 13.3462 21.4399 12.9545 21.8302C12.5628 22.2219 12.0974 22.4177 11.5582 22.4177C11.019 22.4177 10.5542 22.2219 10.1639 21.8302L1.20449 12.8708C1.00865 12.675 0.86961 12.4629 0.787359 12.2344C0.705111 12.0059 0.664637 11.7611 0.665943 11.5C0.665943 11.2389 0.707071 10.9941 0.789322 10.7656C0.871571 10.5372 1.00996 10.325 1.20449 10.1292L10.2128 1.12085C10.5718 0.761824 11.0203 0.582306 11.5582 0.582306C12.0961 0.582306 12.5615 0.778141 12.9545 1.16981Z" fill="#111111"/>
</svg>

<svg width="32" height="23" fill="none" xmlns="http://www.w3.org/2000/svg"><path d="M12.954 1.17c.392.391.58.865.564 1.42a2.016 2.016 0 0 1-.613 1.42L7.373 9.541H29.21c.555 0 1.02.188 1.396.564.376.376.563.84.562 1.394 0 .555-.188 1.02-.564 1.396-.376.376-.84.564-1.394.562H7.373l5.581 5.582c.392.391.588.857.588 1.396a1.9 1.9 0 0 1-.588 1.394 1.907 1.907 0 0 1-1.396.588 1.9 1.9 0 0 1-1.394-.588l-8.96-8.96a1.728 1.728 0 0 1-.417-.636 2.12 2.12 0 0 1-.121-.734c0-.261.041-.506.123-.734.083-.229.221-.441.415-.637l9.009-9.008c.359-.36.807-.539 1.345-.539.538 0 1.004.196 1.396.588z" fill="#111"/></svg>
